packages/core/src/svgs/blt.svg

<svg width="24" height="24" viewBox="0 0 24 24" fill="none" xmlns="http://www.w3.org/2000/svg">
<g clip-path="url(#clip0_31_7161)">
<path d="M0 0H24V24H0V0Z" fill="#616AE9"/>
<path d="M11.7047 4.79839C10.9589 5.40182 9.81551 6.68968 9.81551 8.20468C9.81551 9.36911 10.7669 10.3133 11.9412 10.3133C13.1155 10.3133 14.0669 9.36911 14.0669 8.20468C14.0669 6.68968 12.9239 5.40182 12.1778 4.79839C12.1109 4.74403 12.0274 4.71436 11.9412 4.71436C11.8551 4.71436 11.7715 4.74403 11.7047 4.79839ZM11.9412 13.687C10.7669 13.687 9.81551 14.6311 9.81551 15.7955C9.81551 17.3105 10.9585 18.5984 11.7047 19.2018C11.7715 19.2562 11.8551 19.2859 11.9412 19.2859C12.0274 19.2859 12.1109 19.2562 12.1778 19.2018C12.9239 18.5988 14.0669 17.3105 14.0669 15.7955C14.0669 14.6311 13.1155 13.687 11.9412 13.687ZM15.7671 14.1087C14.5932 14.1087 13.6414 13.1645 13.6414 12.0001C13.6414 10.8357 14.5932 9.89154 15.7671 9.89154C17.2945 9.89154 18.5931 11.0251 19.2012 11.7657C19.2559 11.8316 19.2858 11.9145 19.2858 12.0001C19.2858 12.0857 19.2559 12.1686 19.2012 12.2345C18.5927 12.9751 17.2941 14.1087 15.7671 14.1087ZM4.79866 11.7657C5.40723 11.0251 6.7058 9.89154 8.2328 9.89154C9.40666 9.89154 10.3585 10.8357 10.3585 12.0001C10.3585 13.1645 9.40666 14.1087 8.2328 14.1087C6.70537 14.1087 5.4068 12.9751 4.79866 12.2345C4.74402 12.1686 4.71411 12.0857 4.71411 12.0001C4.71411 11.9145 4.74402 11.8316 4.79866 11.7657Z" fill="white"/>
</g>
<defs>
<clipPath id="clip0_31_7161">
<rect width="24" height="24" fill="white"/>
</clipPath>
</defs>
</svg>

<svg xmlns="http://www.w3.org/2000/svg" width="24" height="24" fill="none" viewBox="0 0 24 24"><g clip-path="url(#a)"><path fill="#616AE9" d="M0 0h24v24H0z"/><path fill="#fff" d="M11.705 4.798c-.746.604-1.89 1.892-1.89 3.407 0 1.164.952 2.108 2.126 2.108a2.117 2.117 0 0 0 2.126-2.108c0-1.515-1.143-2.803-1.89-3.407a.375.375 0 0 0-.472 0m.236 8.889a2.117 2.117 0 0 0-2.125 2.109c0 1.515 1.143 2.802 1.889 3.406a.375.375 0 0 0 .473 0c.746-.603 1.889-1.892 1.889-3.407a2.117 2.117 0 0 0-2.126-2.108m3.826.422A2.117 2.117 0 0 1 13.641 12c0-1.164.952-2.108 2.126-2.108 1.527 0 2.826 1.133 3.434 1.874a.37.37 0 0 1 0 .469c-.608.74-1.907 1.874-3.434 1.874M4.8 11.766c.608-.74 1.907-1.874 3.434-1.874 1.174 0 2.125.944 2.125 2.108a2.117 2.117 0 0 1-2.125 2.109c-1.528 0-2.826-1.134-3.434-1.874a.37.37 0 0 1 0-.47"/></g><defs><clipPath id="a"><path fill="#fff" d="M0 0h24v24H0z"/></clipPath></defs></svg>
